X:51
T:Palmer's Gate
R:reel
C:Joe Liddy
Z:Transcribed by Dave Marshall
M:C|
K:EDor
|: B~E3 GABG | AGBA GEDE | ~G3A B2GA | BedB ABGA |
B~E3 GABG | AGBA GEDE | GABd edBA | EGFD E4 :|
|: Beed e3f | g2fg edBA | ~G3A B2GA | (3Bcd ed BAGA |
Beed e3f | g2fg edBA | GABd edBA | EGFD E4 :|
